src/pos-icons/vector-intersection.svg

<svg height="24" viewBox="0 0 24 24" width="24" xmlns="http://www.w3.org/2000/svg"><path d="m3.14 1a2.14 2.14 0 0 0 -2.14 2.14v1.86h2v-2h2v-2zm3.86 0v2h3v-2zm5 0v2h2v2h2v-1.86c0-1.18-.96-2.14-2.14-2.14zm-11 6v3h2v-3zm8 0c-1.11 0-2 .89-2 2v7h6.86a2.14 2.14 0 0 0 2.14-2.14c0-2.29 0-6.86 0-6.86s-4.67 0-7 0m9 0v2h2v2h2v-2c0-1.11-.89-2-2-2zm-9 2h5v5h-5zm-8 3v1.86c0 1.18.96 2.14 2.14 2.14h1.86v-2h-2v-2zm19 1v3h2v-3zm-13 5v2c0 1.11.89 2 2 2h2v-2h-2v-2zm13 0v2h-2v2h2c1.11 0 2-.89 2-2v-2zm-7 2v2h3v-2z"/></svg>

<?xml version="1.0" encoding="UTF-8"?><!DOCTYPE svg PUBLIC "-//W3C//DTD SVG 1.1//EN" "http://www.w3.org/Graphics/SVG/1.1/DTD/svg11.dtd"><svg xmlns="http://www.w3.org/2000/svg" xmlns:xlink="http://www.w3.org/1999/xlink" version="1.1" id="mdi-vector-intersection" width="24" height="24" viewBox="0 0 24 24"><path d="M3.14,1A2.14,2.14 0 0,0 1,3.14V5H3V3H5V1H3.14M7,1V3H10V1H7M12,1V3H14V5H16V3.14C16,1.96 15.04,1 13.86,1H12M1,7V10H3V7H1M9,7C7.89,7 7,7.89 7,9C7,11.33 7,16 7,16C7,16 11.57,16 13.86,16A2.14,2.14 0 0,0 16,13.86C16,11.57 16,7 16,7C16,7 11.33,7 9,7M18,7V9H20V11H22V9C22,7.89 21.11,7 20,7H18M9,9H14V14H9V9M1,12V13.86C1,15.04 1.96,16 3.14,16H5V14H3V12H1M20,13V16H22V13H20M7,18V20C7,21.11 7.89,22 9,22H11V20H9V18H7M20,18V20H18V22H20C21.11,22 22,21.11 22,20V18H20M13,20V22H16V20H13Z" /></svg>
